X:1
T:From depth of sin
T:De profundis Psal.130.
T:William Byrd (c.1540-1623)
T:From depth of sin De profundis Psal.130.
T:© Choral Public Domain Library 2010
T:© Choral Public Domain Library 2010
T:© Choral Public Domain Library 2010
T:© Choral Public Domain Library 2010
C:William Byrd (c.1540-1623)
Z:© Choral Public Domain Library 2010
%%score [ 1 2 3 ]
L:1/8
M:4/4
K:F
V:1 treble nm="Alto" snm="S."
V:2 treble-8 transpose=-12 nm="Tenor" snm="T."
V:3 treble-8 transpose=-12 nm="Tenor" snm="T."
V:1
 [Ce]2 |[M:4/2] z16 | z16 | z4 d8 D4- | D2 C2 D2 E2 F2 D2 G4- | G4 ^F4 G8 | z8 z4 A4- | A4 d8 c4 | %8
w: |||From depth|_ of _ _ _ _ _|_ _ sin,|O|_ Lord to|
 =B8 z4 A4 | c4 A4 c6 =B2 | A2 G2 F4 E8 | z8 z4 E4- | E4 A8 ^G4 | A8 F8 | E8 z4 A4 | =B8 ^c8 | %16
w: thee I|have made hum- *|* * ble cry,|Lord|_ hear my|voice, my|voice, make|it as-|
 d8 z4 A4- | A4 d8 =B4 | ^c8 d8 | e8 z8 | z4 =B4 c6 _B2 | A4 G4 F4 B4 | A8 z4 A4- | A4 G6 F2 c4- | %24
w: cend un-|* to thy|throne so|high,|un- to the|voice of my re-|quest, poured|_ out be- fore|
 c4 B4 A8 | A8 G8 | z8 z4 E4- | E4 D6 C2 G4- | G4 F4 E4 D4 | E4 D4 ^C8 | z4 c8 A4 | B4 c4 A4 d4- | %32
w: _ thy sight,|thy sight,|poured|_ out be- fore|_ thy sight, be-|fore thy sight,|Lord let|thine ears at- ten-|
 d2 c2 c8 =B4 | c8 z4 G4 | A12 D4 | G4 F4 E8 | z4 A4 d8- | d4 c4 B4 A4- | A2 GF G4 A4 E4 | %39
w: * tive _ _|be, to|hear me|day and night,|to hear|_ me day and|_ _ _ _ night, to|
 F8 E4 D4 | A6 A2 G4 F4 | E8 z4 A4 | c8 B4 A4- | A2 GF G4 ^F4 G4- | G4 ^F4 G8 | E12 D4 | %46
w: hear me, to|hear me day and|night, to|hear me day|_ and _ _ night, day|_ and night,|day and|
 !fermata!D16 |] %47
w: night.|
V:2
 [Da]2 |[M:4/2] a16 | A12 B4 | A8 B8 | G4 B8 A2 G2 | A4 d8 g4- | g4 f4 e8 | f4 d2 e2 f2 d2 a4- | %8
w: |From|depth of|sin, from|depth of _ _|sin, O Lord|_ to thee,|O _ _ _ _ Lord|
 a4 ^g4 a4 f4 | e8 z4 e4 | f4 d4 ^c6 d2 | e4 f4 e4 A4 | c4 A4 c6 =B2 | A2 G2 F2 E2 D4 D4 | A8 ^F8 | %15
w: _ to thee, to|thee, I|have made hum- *|* ble cry, I|have made hum- *|* * * ble cry, Lord|hear my|
 G8 A8 | z4 d4 e8 | ^f8 g8 | z8 d4 g4- | g4 e4 ^f8 | ^g8 a8 | z8 z4 d4 | f6 e2 d4 c4 | F4 B4 A8 | %24
w: _ voice,|make it|as- cend,|un- to|_ thy throne|so high,|un-|to the voice of|my re- quest,|
 G8 F8- | F4 F4 c8 | B8 A8- | A8 z4 e4- | e4 d6 c2 g4- | g4 f4 e8- | e8 z8 | z4 f8 d4 | %32
w: poured out|_ be- fore|thy sight,|_ poured|_ out be- fore|_ thy sight,|_|Lord let|
 e4 f4 d4 g4- | g2 f2 f8 e4 | f8 z8 | z8 z4 A4 | f12 d4 | f4 e4 d8 | c4 B4 A8 | z4 d4 g8 | %40
w: thine ears at- ten-|* tive _ _|be,|to|hear me|day and night,|day and night,|to hear|
 f4 e6 d2 d4- | d2 ^c=B c4 d8 | z4 G4 d8 | c4 B8 A2 G2 | A8 G8- | G4 c8 =B2 A2 | !fermata!=B16 |] %47
w: me day _ and|_ _ _ _ night,|to hear|me day and _|_ night,|_ day and _|night.|
V:3
 [Cf]2 |[M:4/2] z4 d8 D4- | D2 C2 D2 E2 F2 D2 G4- | G4 ^F4 G8 | z8 d8 | D8 G6 A2 | B2 G2 d8 ^c4 | %7
w: |From depth|_ of _ _ _ _ _|_ _ sin,|from|depth of _|_ _ _ _|
 d8 z4 A4 | e6 d2 ^c4 d4 | A16 | z8 z4 A4 | c4 A4 c6 =B2 | A2 G2 F4 E8 | z4 A8 d4- | d4 ^c4 d8- | %15
w: sin, O|Lord to thee, to|thee,|I|have made hum- *|* * ble cry,|Lord hear|_ my voice,|
 d8 z4 A4 | =B8 ^c8 | d8 z4 G4 | A8 =B8 | c8 d8 | e8 z4 A4 | c6 B2 A4 G4 | F4 D4 F8 | z16 | %24
w: _ make|it as-|cend un-|to thy|throne so|high, un-|to the voice of|my re- quest,||
 z4 d8 c4- | c2 F2 f8 e4 | d4 d4 ^c6 d2 | e2 c2 f4 e8 | c4 d4 A4 =B4 | c4 d4 A8 | A8 F8 | %31
w: poured out|_ be- fore thy|sight, be- fore thy|_ _ _ sight,|be- fore thy _|_ _ sight,|Lord let|
 G4 A4 F4 B4 | A4 F4 G4 G4 | A6 B2 c8 | z4 F4 f8 | e4 d6 ^c=B c4 | d8 z8 | z4 A4 f8 | %38
w: thine ears at- ten-|* tive be, at-|ten- tive be,|to hear|me day and _ _|night,|to hear|
 e4 d6 ^c=B c4 | d8 c4 B4 | A8 z4 D4 | A8 G4 F4- | F2 ED E4 D8 | z8 D8 | D4 D4 E8 | C8 G8- | %46
w: me day and _ _|night, day and|night, to|hear me day|_ and _ _ night,|to|hear me day|and night.|
 !fermata!G16 |] %47
w: _|

